X:1
T:Iniquitatem meam
T:Constantijn Huygens
T:Iniquitatem meam
T:Psalmus 51:5,6
C:Constantijn Huygens
%%score 1 { ( 2 3 ) | 4 }
L:1/8
Q:1/4=55
M:4/4
K:Bb
V:1 treble nm="Soprano" snm="S"
V:2 treble nm="Organ" snm="Org."
V:3 treble 
V:4 bass 
V:1
 z ddd d3 A | B2 G4 z2 | z ggg g3 d | e2 c2 c4- | c2 BA B4 | A4 de f2- | f2 B2 B2 B2 | z4 cc c2- | %8
w: In- i- qui- ta- tem|me- am,|in- i- qui- ta- tem|me- am e-|* go cog- no-|vi, et pec- ca-|* tum me- um|con- tra me,|
 c2 dd =e4 | z2 fg a4 | ^c2 d4 (c2 | d8) :: B4 G2 e2- | e2 d2 z2 de | f4 c2 c2 | c4 c4 | f2 d2 g4 | %17
w: _ con- tra me,|con- tra me|est sem- per.|_|Ti- bi, ti-|* bi, ti- bi|so- li pec-|ca- vi,|ti- bi so-|
 c2 d2 =e4 | A2 A2 B4 | A2 A2 B2 c2 | d2 =e2 f4 | z2 f2 g2 B2 | c2 d2 e4- | e2 e2 d4 | c4 =B2 (A2 | %25
w: li pec- ca-|vi, et ma-|lum, et ma- lum|con- tra te,|et ma- lum|con- tra te|_ fe- *|* * ci.|
 =B6) c2 | d8 :| %27
w: _ _||
V:2
 B4 A4 | G8 | [ce]4 [Gd]4 | c4 G4 | [DG]8 | [D-^FA-]4 [D=FA]4 | [FA]2 [GB]2 [DF]4 | [EG]4 [FA]4 | %8
 [^FA-]4 [A^c]4 | [^c=e]2 [Bd]2 [A=cf]4 | [=EA-]8 | [D^FA]8 :: [DGB]6 [Ec]2- | %13
 [Ec]2 [GB]2 [Bd]2 [Ac]2 | [G=B]4 [Gc]4- | [Gc]4 [FA]4 | [GBd]4 [Gc=e]4 | [FA]4 [^G=B]4 | %18
 [D-F-A]4 [DF]4 | [CF]4 [DF]2 [CFA]2 | [DGB]2 [Gc]2 [Ad]4 | [Bdf]4 [G-B-e]2 [DGB]2 | _A4 G4 | G8 | %24
 [EG]8 | [DG]8 | [DG]8 :| %27
V:3
 D8 | D8 | x8 | E8 | x8 | x8 | x8 | x8 | x8 | x8 | x8 | x8 :: x8 | x8 | F4 =E2 F2- | F2 =E2 x4 | %16
 x8 | x8 | x8 | x8 | x8 | x8 | [CE]8 | E4 D4 | x8 | D4 C4- | C4 =B,4 :| %27
V:4
 G,4 ^F,4 | G,6 D,2 | E,4 =B,,4 | C,8 | G,4 G,,4 | D,6 D,2- | D,2 E,2 B,,4- | B,,4 F,4 | D,4 A,4- | %9
 A,2 G,2 F,2 G,2 | A,4 A,,4 | D,8 :: G,8 | G,4 F,2 E,2 | D,4 =E,2 F,2- | F,2 =E,2 F,2 D,2- | %16
 D,2 G,4 =E,2 | A,2 F,2 =E,4 | D,4 D4 | C4 B,2 A,2 | G,2 F,=E, D,2 C,2 | B,,2 A,,2 G,,2 F,,2 | %22
 E,,2 D,,2 C,,2 C2 | C6 =B,2 | C4 C,4 | G,8 | G,,8 :| %27

